svg/vector_link.svg

<svg xmlns="http://www.w3.org/2000/svg" viewBox="0 0 24 24"><path d="M3 1c-1.11 0-2 .89-2 2v11c0 1.11.89 2 2 2h11c1.11 0 2-.89 2-2v-3h-2v3H3V3h11v2h2V3c0-1.11-.89-2-2-2M9 7c-1.11 0-2 .89-2 2v3h2V9h11v11H9v-2H7v2c0 1.11.89 2 2 2h11c1.11 0 2-.89 2-2V9c0-1.11-.89-2-2-2z"/></svg>

<?xml version="1.0" encoding="UTF-8"?><!DOCTYPE svg PUBLIC "-//W3C//DTD SVG 1.1//EN" "http://www.w3.org/Graphics/SVG/1.1/DTD/svg11.dtd"><svg xmlns="http://www.w3.org/2000/svg" xmlns:xlink="http://www.w3.org/1999/xlink" version="1.1" id="mdi-vector-link" width="24" height="24" viewBox="0 0 24 24"><path d="M3 1C1.89 1 1 1.89 1 3V14C1 15.11 1.89 16 3 16H14C15.11 16 16 15.11 16 14V11H14V14H3V3H14V5H16V3C16 1.89 15.11 1 14 1M9 7C7.89 7 7 7.89 7 9V12H9V9H20V20H9V18H7V20C7 21.11 7.89 22 9 22H20C21.11 22 22 21.11 22 20V9C22 7.89 21.11 7 20 7H9" /></svg>
